public/media/icons-technologies/GRAPHQL.svg

<svg width="140" height="140" viewBox="0 0 140 140" fill="none" xmlns="http://www.w3.org/2000/svg">
<path d="M28.7008 99.9593L24.5055 97.5371L71.2421 16.5892L75.4375 19.0114L28.7008 99.9593Z" fill="#E535AB"/>
<path d="M23.5448 91.0702H117.018V95.9145H23.5448V91.0702Z" fill="#E535AB"/>
<path d="M72.1485 120.786L25.3944 93.7918L27.8166 89.5964L74.5707 116.591L72.1485 120.786ZM112.764 50.4319L66.0096 23.4376L68.4318 19.2422L115.186 46.2366L112.764 50.4319Z" fill="#E535AB"/>
<path d="M27.8294 50.4132L25.4072 46.2182L72.1614 19.2238L74.5836 23.4189L27.8294 50.4132Z" fill="#E535AB"/>
<path d="M111.902 99.9602L65.165 19.0123L69.3604 16.5901L116.097 97.538L111.902 99.9602ZM27.251 43.0057H32.0954V96.9943H27.251V43.0057Z" fill="#E535AB"/>
<path d="M108.497 43.0057H113.341V96.9943H108.497V43.0057Z" fill="#E535AB"/>
<path d="M71.3238 118.736L69.2081 115.071L109.872 91.5931L111.987 95.2576L71.3238 118.736Z" fill="#E535AB"/>
<path d="M119.761 98.5702C116.96 103.444 110.715 105.107 105.841 102.306C100.967 99.504 99.3039 93.2589 102.106 88.3853C104.907 83.5117 111.152 81.8483 116.026 84.6499C120.929 87.4806 122.592 93.6966 119.761 98.5702ZM38.4573 51.6147C35.6557 56.4883 29.4106 58.1517 24.537 55.3501C19.6634 52.5485 18 46.3034 20.8016 41.4298C23.6031 36.5562 29.8483 34.8928 34.7219 37.6944C39.5954 40.5251 41.2589 46.7411 38.4573 51.6147ZM20.8308 98.5702C18.0292 93.6966 19.6926 87.4806 24.5662 84.6499C29.4397 81.8483 35.6557 83.5117 38.4865 88.3853C41.2881 93.2589 39.6246 99.4749 34.7511 102.306C29.8483 105.107 23.6323 103.444 20.8308 98.5702ZM102.135 51.6147C99.3331 46.7411 100.997 40.5251 105.87 37.6944C110.744 34.8928 116.96 36.5562 119.79 41.4298C122.592 46.3034 120.929 52.5194 116.055 55.3501C111.181 58.1517 104.936 56.4883 102.135 51.6147ZM70.296 127.14C64.6637 127.14 60.1111 122.588 60.1111 116.955C60.1111 111.323 64.6637 106.771 70.296 106.771C75.9283 106.771 80.4809 111.323 80.4809 116.955C80.4809 122.559 75.9283 127.14 70.296 127.14ZM70.296 33.2294C64.6637 33.2294 60.1111 28.6768 60.1111 23.0445C60.1111 17.4122 64.6637 12.8596 70.296 12.8596C75.9283 12.8596 80.4809 17.4122 80.4809 23.0445C80.4809 28.6768 75.9283 33.2294 70.296 33.2294Z" fill="#E535AB"/>
</svg>

<svg xmlns="http://www.w3.org/2000/svg" fill="none" viewBox="0 0 140 140">
  <path fill="#E535AB" d="m28.7 99.96-4.2-2.42 46.74-80.95 4.2 2.42L28.7 99.96Z"/>
  <path fill="#E535AB" d="M23.54 91.07h93.48v4.84H23.54v-4.84Z"/>
  <path fill="#E535AB" d="m72.15 120.79-46.76-27 2.43-4.2 46.75 27-2.42 4.2Zm40.61-70.36-46.75-27 2.42-4.19 46.76 27-2.43 4.2Z"/>
  <path fill="#E535AB" d="m27.83 50.41-2.42-4.2 46.75-26.99 2.42 4.2-46.75 27Z"/>
  <path fill="#E535AB" d="M111.9 99.96 65.17 19.01l4.19-2.42 46.74 80.95-4.2 2.42ZM27.25 43.01h4.85v53.98h-4.85V43.01Z"/>
  <path fill="#E535AB" d="M108.5 43h4.84v54h-4.84V43Z"/>
  <path fill="#E535AB" d="m71.32 118.74-2.11-3.67 40.66-23.48 2.12 3.67-40.67 23.48Z"/>
  <path fill="#E535AB" d="M119.76 98.57a10.2 10.2 0 0 1-17.65-10.18 10.2 10.2 0 0 1 17.65 10.18Zm-81.3-46.96A10.2 10.2 0 0 1 20.8 41.43a10.2 10.2 0 0 1 17.66 10.18ZM20.83 98.57a10.2 10.2 0 0 1 3.74-13.92 10.2 10.2 0 0 1 13.92 3.74 10.2 10.2 0 0 1-17.66 10.18Zm81.3-46.96a10.2 10.2 0 0 1 3.74-13.92 10.2 10.2 0 0 1 13.92 3.74 10.2 10.2 0 0 1-17.66 10.18ZM70.3 127.14a10.18 10.18 0 1 1 0-20.37 10.17 10.17 0 1 1 0 20.37Zm0-93.91a10.18 10.18 0 1 1 0-20.37 10.18 10.18 0 1 1 0 20.37Z"/>
</svg>
